X:18
T:Lazy Dog
C:Chris Perry
S:The Fiddle Player's Tunebook 1
M:6/8
L:1/8
Q:130
K:D
|:D |
"D"F3/2G/A "G"BGF |\
"A"E3/2F/G AFE |\
"D"DEF "G"GED |\
"A"C3/2E/C "D"D2 D |\
"D"F3/2G/A "G"BGF |\
"A"E3/2F/G ABc |\
"D"dcd "G"BGE |\
"A"C3/2E/C "D"D2 :: A |\
"D"d3/2f/d "A"cec |\
"G" (3Bcd B "D"AFA |\
"G"G3/2B/G "D"FAF |\
"E"E^GB "A"A2 A |\
"D"f3/2a/f "A"ecA |\
"G" (3Bcd B "D"AFA |\
"G"G3/2B/G "D"FAF |\
"A"ECE "D"D2 :|
